baragozik/img/minus.svg

<svg width="29" height="29" viewBox="0 0 29 29" fill="none" xmlns="http://www.w3.org/2000/svg">
<g clip-path="url(#clip0)">
<path d="M14.5 27.1875C11.1351 27.1875 7.90795 25.8508 5.52858 23.4714C3.14921 21.092 1.8125 17.8649 1.8125 14.5C1.8125 11.1351 3.14921 7.90795 5.52858 5.52858C7.90795 3.14921 11.1351 1.8125 14.5 1.8125C17.8649 1.8125 21.092 3.14921 23.4714 5.52858C25.8508 7.90795 27.1875 11.1351 27.1875 14.5C27.1875 17.8649 25.8508 21.092 23.4714 23.4714C21.092 25.8508 17.8649 27.1875 14.5 27.1875ZM14.5 29C18.3456 29 22.0338 27.4723 24.753 24.753C27.4723 22.0338 29 18.3456 29 14.5C29 10.6544 27.4723 6.96623 24.753 4.24695C22.0338 1.52767 18.3456 0 14.5 0C10.6544 0 6.96623 1.52767 4.24695 4.24695C1.52767 6.96623 0 10.6544 0 14.5C0 18.3456 1.52767 22.0338 4.24695 24.753C6.96623 27.4723 10.6544 29 14.5 29Z" fill="#828282"/>
<path d="M13 11C13 12.6569 12.1046 14 11 14C9.89543 14 9 12.6569 9 11C9 9.34315 9.89543 8 11 8C12.1046 8 13 9.34315 13 11Z" fill="#FC6E8E"/>
<path fill-rule="evenodd" clip-rule="evenodd" d="M11.5822 12.5666C11.8202 12.2095 12 11.6585 12 11C12 10.3415 11.8202 9.7905 11.5822 9.43338C11.3394 9.06927 11.1139 9 11 9C10.8861 9 10.6606 9.06927 10.4178 9.43338C10.1798 9.7905 10 10.3415 10 11C10 11.6585 10.1798 12.2095 10.4178 12.5666C10.6606 12.9307 10.8861 13 11 13C11.1139 13 11.3394 12.9307 11.5822 12.5666ZM11 14C12.1046 14 13 12.6569 13 11C13 9.34315 12.1046 8 11 8C9.89543 8 9 9.34315 9 11C9 12.6569 9.89543 14 11 14Z" fill="#FC6E8E"/>
<path d="M20 11C20 12.6569 19.1046 14 18 14C16.8954 14 16 12.6569 16 11C16 9.34315 16.8954 8 18 8C19.1046 8 20 9.34315 20 11Z" fill="#FC6E8E"/>
<path fill-rule="evenodd" clip-rule="evenodd" d="M18.5822 12.5666C18.8202 12.2095 19 11.6585 19 11C19 10.3415 18.8202 9.7905 18.5822 9.43338C18.3394 9.06927 18.1139 9 18 9C17.8861 9 17.6606 9.06927 17.4178 9.43338C17.1798 9.7905 17 10.3415 17 11C17 11.6585 17.1798 12.2095 17.4178 12.5666C17.6606 12.9307 17.8861 13 18 13C18.1139 13 18.3394 12.9307 18.5822 12.5666ZM18 14C19.1046 14 20 12.6569 20 11C20 9.34315 19.1046 8 18 8C16.8954 8 16 9.34315 16 11C16 12.6569 16.8954 14 18 14Z" fill="#FC6E8E"/>
<path fill-rule="evenodd" clip-rule="evenodd" d="M15.0767 19C13.1323 19.0052 11.1662 19.7319 8.51934 21.3399C8.04732 21.6266 7.43223 21.4764 7.14549 21.0044C6.85875 20.5324 7.00894 19.9173 7.48095 19.6306C10.2499 17.9484 12.5911 17.0066 15.0714 17C17.5434 16.9935 19.9977 17.9168 22.9934 19.6153C23.4738 19.8877 23.6424 20.498 23.37 20.9784C23.0976 21.4589 22.4873 21.6275 22.0069 21.3551C19.1171 19.7166 17.0293 18.9948 15.0767 19Z" fill="#FC6E8E"/>
</g>
<defs>
<clipPath id="clip0">
<rect width="29" height="29" fill="white"/>
</clipPath>
</defs>
</svg>

<svg width="29" height="29" fill="none" xmlns="http://www.w3.org/2000/svg"><g clip-path="url(#clip0)"><path d="M14.5 27.188a12.687 12.687 0 110-25.375 12.687 12.687 0 010 25.375zm0 1.812a14.5 14.5 0 100-29 14.5 14.5 0 000 29z" fill="#828282"/><path d="M13 11c0 1.657-.895 3-2 3s-2-1.343-2-3 .895-3 2-3 2 1.343 2 3z" fill="#FC6E8E"/><path fill-rule="evenodd" clip-rule="evenodd" d="M11.582 12.567C11.82 12.21 12 11.658 12 11c0-.659-.18-1.21-.418-1.567C11.34 9.07 11.114 9 11 9c-.114 0-.34.07-.582.433C10.18 9.79 10 10.342 10 11c0 .659.18 1.21.418 1.567.243.364.468.433.582.433.114 0 .34-.07.582-.433zM11 14c1.105 0 2-1.343 2-3s-.895-3-2-3-2 1.343-2 3 .895 3 2 3z" fill="#FC6E8E"/><path d="M20 11c0 1.657-.895 3-2 3s-2-1.343-2-3 .895-3 2-3 2 1.343 2 3z" fill="#FC6E8E"/><path fill-rule="evenodd" clip-rule="evenodd" d="M18.582 12.567C18.82 12.21 19 11.658 19 11c0-.659-.18-1.21-.418-1.567C18.34 9.07 18.114 9 18 9c-.114 0-.34.07-.582.433C17.18 9.79 17 10.342 17 11c0 .659.18 1.21.418 1.567.243.364.468.433.582.433.114 0 .34-.07.582-.433zM18 14c1.105 0 2-1.343 2-3s-.895-3-2-3-2 1.343-2 3 .895 3 2 3zm-2.923 5c-1.945.005-3.91.732-6.558 2.34a1 1 0 01-1.038-1.71c2.769-1.682 5.11-2.623 7.59-2.63 2.472-.006 4.927.917 7.922 2.615a1 1 0 01-.986 1.74c-2.89-1.638-4.978-2.36-6.93-2.355z" fill="#FC6E8E"/></g><defs><clipPath id="clip0"><path fill="#fff" d="M0 0h29v29H0z"/></clipPath></defs></svg>
